X: 10027
T: Diamond
R: waltz
M: 3/4
K: Dmajor
A AG|:"D"F2 Fe dF|"G"G2 GB AG|"D"FA de (3efg|"F#m"a3 f ed|"Bm"B2 Be (3dcB|
"A"A2 {c}d3 A|"G"{F}G2 E2 EF|"Em"G2 GBAG|"D"F2 Fe dF|"G"G2 GB AG|"D"FA de (3efg|
"F#m"a3 f ed|"Bm"B2 Be (3dcB|"D"A2 {c}d2 (3EFG|"A"F2 D2 DE|1 "D"D3 A AG:|2 "D"D3 G FG|
|:"D"A2 a2 ab|"F#m"a2 ag (3fga|"G"b2 e2 ef|"A"e3 a ag|"D"fg ab af|"G"gf e2 ed|"A"c2 A2 AB|"A"A3 G FG|
[1"D"A2 a2 ab|"F#m"a2 ag (3fga|"G"b2 e2 ef|"A"e3 f fe|"D"d2 dc cA|"G"G3 G FG|"D"A2 d2 de|"D"d3 G FG:|
[2"D"AD (3FGA de|"D"fg ab af|"G"g2 e2 ef|"A"e3 f fe|"D"d2 dc cA|"G"G3 G FG|"D"A2 {c}dB AF|"D"D3 A AG||

